src/icons/svgs/24/text-slash.svg

<svg width="24" height="24" viewBox="0 0 24 24" fill="none" xmlns="http://www.w3.org/2000/svg">
<mask id="path-1-inside-1" fill="white">
<path fill-rule="evenodd" clip-rule="evenodd" d="M19.5389 4.85712L4.00024 4.85712C2.89567 4.85712 2.00024 5.75255 2.00024 6.85712L2.00024 17C2.00024 18.1045 2.89568 19 4.00024 19L5.432 19L6.92819 17.5L4.00024 17.5C3.7241 17.5 3.50024 17.2761 3.50024 17L3.50024 6.85712C3.50024 6.58098 3.7241 6.35712 4.00024 6.35712L18.0427 6.35712L19.5389 4.85712ZM9.04684 17.5L20.0002 17.5C20.2764 17.5 20.5002 17.2761 20.5002 17L20.5002 6.85712C20.5002 6.62995 20.3487 6.43816 20.1413 6.37728L21.2334 5.28239C21.7003 5.64852 22.0002 6.21779 22.0002 6.85712L22.0002 17C22.0002 18.1045 21.1048 19 20.0002 19L7.55065 19L9.04684 17.5Z"/>
</mask>
<path fill-rule="evenodd" clip-rule="evenodd" d="M19.5389 4.85712L4.00024 4.85712C2.89567 4.85712 2.00024 5.75255 2.00024 6.85712L2.00024 17C2.00024 18.1045 2.89568 19 4.00024 19L5.432 19L6.92819 17.5L4.00024 17.5C3.7241 17.5 3.50024 17.2761 3.50024 17L3.50024 6.85712C3.50024 6.58098 3.7241 6.35712 4.00024 6.35712L18.0427 6.35712L19.5389 4.85712ZM9.04684 17.5L20.0002 17.5C20.2764 17.5 20.5002 17.2761 20.5002 17L20.5002 6.85712C20.5002 6.62995 20.3487 6.43816 20.1413 6.37728L21.2334 5.28239C21.7003 5.64852 22.0002 6.21779 22.0002 6.85712L22.0002 17C22.0002 18.1045 21.1048 19 20.0002 19L7.55065 19L9.04684 17.5Z" fill="black"/>
<path d="M19.5389 4.85712L20.2469 5.56333C20.5324 5.27713 20.6175 4.84721 20.4625 4.47385C20.3076 4.10049 19.9431 3.85712 19.5389 3.85712L19.5389 4.85712ZM4.00024 4.85712L4.00024 3.85712L4.00024 4.85712ZM2.00024 6.85712L3.00024 6.85712L2.00024 6.85712ZM2.00024 17L1.00024 17L2.00024 17ZM5.432 19L5.432 20C5.69765 20 5.95239 19.8943 6.14 19.7062L5.432 19ZM6.92819 17.5L7.63619 18.2062C7.92166 17.92 8.00675 17.4901 7.85182 17.1167C7.69689 16.7433 7.33242 16.5 6.92819 16.5L6.92819 17.5ZM4.00024 17.5L4.00024 18.5L4.00024 18.5L4.00024 17.5ZM3.50024 17L2.50024 17L2.50024 17L3.50024 17ZM3.50024 6.85712L2.50024 6.85712L2.50024 6.85712L3.50024 6.85712ZM4.00024 6.35712L4.00024 7.35712H4.00024L4.00024 6.35712ZM18.0427 6.35712L18.0427 7.35712C18.3084 7.35712 18.5631 7.25141 18.7507 7.06333L18.0427 6.35712ZM9.04684 17.5L9.04684 16.5C8.78118 16.5 8.52644 16.6057 8.33883 16.7938L9.04684 17.5ZM20.0002 17.5L20.0002 16.5H20.0002L20.0002 17.5ZM20.5002 17L21.5002 17V17L20.5002 17ZM20.5002 6.85712L19.5002 6.85712L19.5002 6.85712L20.5002 6.85712ZM20.1413 6.37728L19.4333 5.67107C19.1841 5.92088 19.085 6.2835 19.1725 6.6253C19.26 6.9671 19.5212 7.2375 19.8597 7.33683L20.1413 6.37728ZM21.2334 5.28239L21.8504 4.49549C21.452 4.18305 20.8829 4.21771 20.5254 4.57619L21.2334 5.28239ZM22.0002 6.85712L21.0002 6.85712V6.85712L22.0002 6.85712ZM22.0002 17L23.0002 17V17L22.0002 17ZM20.0002 19L20.0002 18H20.0002L20.0002 19ZM7.55065 19L6.84264 18.2938C6.55717 18.58 6.47208 19.0099 6.62701 19.3832C6.78194 19.7566 7.14642 20 7.55065 20L7.55065 19ZM19.5389 3.85712L4.00024 3.85712L4.00024 5.85712L19.5389 5.85712L19.5389 3.85712ZM4.00024 3.85712C2.34339 3.85712 1.00024 5.20026 1.00024 6.85712L3.00024 6.85712C3.00024 6.30483 3.44796 5.85712 4.00024 5.85712L4.00024 3.85712ZM1.00024 6.85712L1.00024 17L3.00024 17L3.00024 6.85712L1.00024 6.85712ZM1.00024 17C1.00024 18.6568 2.34339 20 4.00024 20L4.00024 18C3.44796 18 3.00024 17.5523 3.00024 17L1.00024 17ZM4.00024 20L5.432 20L5.432 18L4.00024 18L4.00024 20ZM6.14 19.7062L7.63619 18.2062L6.22018 16.7938L4.72399 18.2938L6.14 19.7062ZM4.00024 18.5L6.92819 18.5L6.92819 16.5L4.00024 16.5L4.00024 18.5ZM2.50024 17C2.50024 17.8284 3.17182 18.5 4.00024 18.5L4.00024 16.5C4.27639 16.5 4.50024 16.7238 4.50024 17L2.50024 17ZM2.50024 6.85712L2.50024 17L4.50024 17L4.50024 6.85712L2.50024 6.85712ZM4.00024 5.35712C3.17182 5.35712 2.50024 6.02869 2.50024 6.85712L4.50024 6.85712C4.50024 7.13326 4.27639 7.35712 4.00024 7.35712L4.00024 5.35712ZM18.0427 5.35712L4.00024 5.35712L4.00024 7.35712L18.0427 7.35712L18.0427 5.35712ZM18.7507 7.06333L20.2469 5.56333L18.8309 4.15091L17.3347 5.65091L18.7507 7.06333ZM9.04684 18.5L20.0002 18.5L20.0002 16.5L9.04684 16.5L9.04684 18.5ZM20.0002 18.5C20.8287 18.5 21.5002 17.8284 21.5002 17L19.5002 17C19.5002 16.7238 19.7241 16.5 20.0002 16.5L20.0002 18.5ZM21.5002 17L21.5002 6.85712L19.5002 6.85712L19.5002 17L21.5002 17ZM21.5002 6.85712C21.5002 6.17413 21.0446 5.60017 20.4228 5.41773L19.8597 7.33683C19.6529 7.27615 19.5002 7.08577 19.5002 6.85712L21.5002 6.85712ZM20.5254 4.57619L19.4333 5.67107L20.8493 7.08349L21.9414 5.9886L20.5254 4.57619ZM23.0002 6.85712C23.0002 5.8976 22.5487 5.04301 21.8504 4.49549L20.6163 6.0693C20.8519 6.25402 21.0002 6.53797 21.0002 6.85712L23.0002 6.85712ZM23.0002 17L23.0002 6.85712L21.0002 6.85712L21.0002 17L23.0002 17ZM20.0002 20C21.6571 20 23.0002 18.6568 23.0002 17L21.0002 17C21.0002 17.5523 20.5525 18 20.0002 18L20.0002 20ZM7.55065 20L20.0002 20L20.0002 18L7.55065 18L7.55065 20ZM8.33883 16.7938L6.84264 18.2938L8.25866 19.7062L9.75484 18.2062L8.33883 16.7938Z" fill="black" mask="url(#path-1-inside-1)"/>
<path fill-rule="evenodd" clip-rule="evenodd" d="M11.2903 13.1266L9.59153 8.39724H7.71695L5 15.9283H6.61949L7.25424 13.9917H9.95932L10.0751 14.3449L11.2903 13.1266ZM10.6144 15.9283H12.2966L11.8512 14.6883L10.6144 15.9283ZM13.1924 13.3437V13.4345C13.1924 15.04 14.1178 16 15.5415 16C16.4551 16 17.1907 15.5862 17.3864 14.9903H17.4636V15.9283H19V8H18.5225L17.4339 9.09136V10.9628H17.3627C17.2046 10.5753 16.8634 10.2836 16.4011 10.1268L13.1924 13.3437ZM17.4339 12.5848C17.4339 11.7076 16.8644 11.1559 16.0814 11.1559C15.2924 11.1559 14.7941 11.7131 14.7941 12.7117V13.28C14.7941 14.2841 15.2983 14.8469 16.1051 14.8469C16.9 14.8469 17.4339 14.2952 17.4339 13.3407V12.5848ZM9.63898 12.8828L8.6483 9.83724H8.57712L7.58644 12.8828H9.63898Z" fill="black"/>
<path fill-rule="evenodd" clip-rule="evenodd" d="M22.5303 1.46967C22.8232 1.76256 22.8232 2.23744 22.5303 2.53033L2.53033 22.5303C2.23744 22.8232 1.76256 22.8232 1.46967 22.5303C1.17678 22.2374 1.17678 21.7626 1.46967 21.4697L21.4697 1.46967C21.7626 1.17678 22.2374 1.17678 22.5303 1.46967Z" fill="black"/>
</svg>

<svg width="24" height="24" viewBox="0 0 24 24" xmlns="http://www.w3.org/2000/svg">
    <mask id="a" fill="#fff">
        <path fill-rule="evenodd" clip-rule="evenodd" d="M19.539 4.857H4a2 2 0 0 0-2 2V17a2 2 0 0 0 2 2h1.432l1.496-1.5H4a.5.5 0 0 1-.5-.5V6.857a.5.5 0 0 1 .5-.5h14.043l1.496-1.5ZM9.047 17.5H20a.5.5 0 0 0 .5-.5V6.857a.5.5 0 0 0-.359-.48l1.092-1.095c.467.367.767.936.767 1.575V17a2 2 0 0 1-2 2H7.55l1.497-1.5Z"/>
    </mask>
    <path fill-rule="evenodd" clip-rule="evenodd" d="M19.539 4.857H4a2 2 0 0 0-2 2V17a2 2 0 0 0 2 2h1.432l1.496-1.5H4a.5.5 0 0 1-.5-.5V6.857a.5.5 0 0 1 .5-.5h14.043l1.496-1.5ZM9.047 17.5H20a.5.5 0 0 0 .5-.5V6.857a.5.5 0 0 0-.359-.48l1.092-1.095c.467.367.767.936.767 1.575V17a2 2 0 0 1-2 2H7.55l1.497-1.5Z"/>
    <path d="m19.539 4.857.708.706a1 1 0 0 0-.708-1.706v1ZM4 4.857v-1 1Zm-2 2h1-1ZM2 17H1h1Zm3.432 2v1a1 1 0 0 0 .708-.294L5.432 19Zm1.496-1.5.708.706a1 1 0 0 0-.708-1.706v1ZM4 17.5v1-1Zm-.5-.5h-1 1Zm0-10.143h-1 1Zm.5-.5v1-1Zm14.043 0v1a1 1 0 0 0 .708-.294l-.708-.706ZM9.047 17.5v-1a1 1 0 0 0-.708.294l.708.706ZM20 17.5v-1 1Zm.5-.5h1-1Zm0-10.143h-1 1Zm-.359-.48-.708-.706a1 1 0 0 0 .427 1.666l.281-.96Zm1.092-1.095.617-.787a1 1 0 0 0-1.325.081l.708.706ZM22 6.857h-1 1ZM22 17h1-1Zm-2 2v-1 1ZM7.55 19l-.707-.706A1 1 0 0 0 7.55 20v-1ZM19.54 3.857H4v2h15.54v-2ZM4 3.857a3 3 0 0 0-3 3h2a1 1 0 0 1 1-1v-2Zm-3 3V17h2V6.857H1ZM1 17a3 3 0 0 0 3 3v-2a1 1 0 0 1-1-1H1Zm3 3h1.432v-2H4v2Zm2.14-.294 1.496-1.5-1.416-1.412-1.496 1.5 1.416 1.412ZM4 18.5h2.928v-2H4v2ZM2.5 17A1.5 1.5 0 0 0 4 18.5v-2a.5.5 0 0 1 .5.5h-2Zm0-10.143V17h2V6.857h-2Zm1.5-1.5a1.5 1.5 0 0 0-1.5 1.5h2a.5.5 0 0 1-.5.5v-2Zm14.043 0H4v2h14.043v-2Zm.708 1.706 1.496-1.5-1.416-1.412-1.496 1.5 1.416 1.412ZM9.047 18.5H20v-2H9.047v2ZM20 18.5a1.5 1.5 0 0 0 1.5-1.5h-2a.5.5 0 0 1 .5-.5v2Zm1.5-1.5V6.857h-2V17h2Zm0-10.143a1.5 1.5 0 0 0-1.077-1.44l-.563 1.92a.5.5 0 0 1-.36-.48h2Zm-.975-2.28L19.433 5.67l1.416 1.412 1.092-1.094-1.416-1.413ZM23 6.856c0-.96-.451-1.814-1.15-2.362L20.616 6.07a.996.996 0 0 1 .384.788h2ZM23 17V6.857h-2V17h2Zm-3 3a3 3 0 0 0 3-3h-2a1 1 0 0 1-1 1v2ZM7.55 20H20v-2H7.55v2Zm.789-3.206-1.496 1.5 1.416 1.412 1.496-1.5-1.416-1.412Z" mask="url(#a)"/>
    <path fill-rule="evenodd" clip-rule="evenodd" d="m11.29 13.127-1.698-4.73H7.717L5 15.928h1.62l.634-1.936H9.96l.116.353 1.215-1.218Zm-.676 2.801h1.683l-.446-1.24-1.237 1.24Zm2.578-2.584v.09c0 1.606.926 2.566 2.35 2.566.913 0 1.649-.414 1.844-1.01h.078v.938H19V8h-.477l-1.09 1.091v1.872h-.07c-.158-.388-.5-.68-.962-.836l-3.209 3.217Zm4.242-.76c0-.876-.57-1.428-1.353-1.428-.789 0-1.287.557-1.287 1.556v.568c0 1.004.504 1.567 1.311 1.567.795 0 1.329-.552 1.329-1.506v-.756Zm-7.795.299-.99-3.046h-.072l-.99 3.046h2.052Z"/>
    <path fill-rule="evenodd" clip-rule="evenodd" d="M22.53 1.47a.75.75 0 0 1 0 1.06l-20 20a.75.75 0 0 1-1.06-1.06l20-20a.75.75 0 0 1 1.06 0Z"/>
</svg>
